X:1
T:Adam Lay yBounden
T:Peter Warlock (1894-1930)
T:Words: c. 15th Century
T:Copyright © 2006 by the Choral Public Domain Library (http://www.cpdl.org) Edition may be freely distributed, duplicated, performed, or recorded. Please send comments, amendments, suggestions and corrections to robertnottingham6@hotmail.com
T:Adam Lay yBounden
T:Copyright © 2006 by the Choral Public Domain Library (http://www.cpdl.org) Edition may be freely distributed, duplicated, performed, or recorded. Please send comments, amendments, suggestions and corrections to robertnottingham6@hotmail.com
T:Copyright © 2006 by the Choral Public Domain Library (http://www.cpdl.org) Edition may be freely distributed, duplicated, performed, or recorded. Please send comments, amendments, suggestions and corrections to robertnottingham6@hotmail.com
T:Copyright © 2006 by the Choral Public Domain Library (http://www.cpdl.org) Edition may be freely distributed, duplicated, performed, or recorded. Please send comments, amendments, suggestions and corrections to robertnottingham6@hotmail.com
C:Peter Warlock
C:(1894-1930)
Z:Words: c. 15th Century
Z:Copyright © 2006 by the Choral Public Domain Library (http://www.cpdl.org)
Z:Edition may be freely distributed, duplicated, performed, or recorded.
Z:Please send comments, amendments, suggestions and corrections to robertnottingham6@hotmail.com
%%score 1 { ( 2 4 7 ) | ( 3 5 6 ) }
L:1/8
Q:1/4=100
M:2/4
K:Eb
V:1 treble-8 nm="Unison  Voice(s)"
V:2 treble nm="Piano"
V:4 treble 
V:7 treble 
V:3 bass 
V:5 bass 
V:6 bass 
V:1
"^Allegretto" z4 | z4 | z4 | z4 |!mp! ce dc | G2 G2 | ce dc | G4 | A2 GG | F2 E2 | FG ED | C3 G | %12
w: ||||A- dam lay y-|boun- den,|Boun- den in a|bond:|Four thou- sand|win- ter|Thought he not too|long. And|
!<(! ce!<)! dc | G G2 G | ce dc | G2 c2 | =B2 =A2 | G2 c2 | =BB =AA | G3!p! G | ce dc | FF AB | %22
w: all was for an|ap- ple, An|ap- ple that he|took, As|clerk- ès|find- en|Writ- ten In their|book. Ne|had the ap- ple|tak- en been, The|
 _dc cB | c2 cc | f =e2 d | c2 FG | =A2 GF | F4 | z4 |!mf! ce dB | G2 G2 | c=e d=B | G4 | %33
w: ap- ple tak- en|been, Ne had|nev- er our|la- dy A-|been heave- nè|queen.||Bless- ed be the|time That|ap- ple tak- en|was,|
[M:5/4] =A2 A2 =BB c2!ff! d2 |[M:2/4] f2 d2 | (_Bc) (dB) | c4- | !fermata!c z z2 |] %38
w: There- fore we moun sing- en,|De- o|gra- * ci- *|as!|_|
V:2
!mf!"^Allegretto"!>(! ([Gc]2!>)! [FB]2) |!>(! ([Gc]2!>)! [FB]2) |!>(! ([Gc]2 [FB]2 | %3
 G2!>)! [FB]2) |!mp! ([Gc]2 [FB]2) | ([Gc]2 [FB]2) | ([Gc]2 [FB]2) | ([Gc]2 [FB]2) | %8
 ([EA]2 [DG]2) | ([CF]2 [B,E]2) | (F3 B,) | (C3 G) |!<(! ([Gc]2 [^F=B])[Gc]!<)! | [DGd]2 [DG]2 | %14
 [Gc]2 =Bc | [Gd]2 [C=E=Ac]2 | [D=B]2 =A2 | [=B,=EG]2 [Cc]2 | [D=B]2 =A2 | [=B,DG]4 | (^F2 G2) | %21
 [D=Fc]2 ([_DA][=DG]) | Bc [cf]B | [=Ec-]4 | c4 | (=A c2 B) | (=A F2 G) |!>(! (=A2!>)! F2) | %28
!p! (=A G2 F) |!mf! [Gc]2 [FB]2 | [E=GB]2 [DG]2 |!<(! [C=E=Ac]2!<)! [D^F=B]2 | G4 | %33
[M:5/4]!f!!<(! [CF=A]4 [DG=B]2 [FAc]2!<)! [GBd]2 |[M:2/4]!ff! [FBdf]4- | [FBdf]2 [Gc=eg]2 | %36
 [Gc=eg]4- | !fermata![Gceg] z z2 |] %38
V:3
 [CE]2 [G,D]2 | [CE]2 [G,D]2 | [CE]2 [G,D]2 | [E,C]2 [G,D]2 | [CE]2 [G,D]2 | [E,C]2 [G,D]2 | %6
 [CE]2 [G,D]2 | [E,C]2 [G,D]2 | [A,C]2 [E,B,]2 | [F,A,]2 [C,G,]2 | x4 | x4 | [B,C]2 x2 | %13
 [G,C]2 [F,=B,]2 | [E,C]2 =B,=A, | [G,,D,=B,]2 [=A,,=E,]2 | ^F,G, C,D, | =E,=E,, E,D,- | %18
 D,=E, =A,2 | x4 | B,2 =A,2 | _A,2 [_F,B,]2 | x4 | [C,_A,]2 [B,,G,]2 | x4 | x4 | x4 | x4 | x4 | %29
 [CE]2 [G,D]2 | [C,G,]2 [=B,,G,]2 | x4 | %32
"^SOURCE: Novello editionCOMPOSER: Peter Warlock (1894-1930)transcribed by Robert G. Nottingham 11/5/06revised 24/9/06TEXT:Adam lay ybounden, Bounden in a bond:Four thousand winter Thought he not too long. And all was for an apple, An apple that he took, As clerkè finden Written in their book." x4 | %33
[M:5/4] x2"^Ne had the apple taken been, The apple taken been, Ne had never our lady Abeen heavenè queen. Blessèd be the time That apple taken was, Therefore we moun singen, Deo gracias!" [C,,G,,]2 x6 | %34
[M:2/4] !>![E,_A,C]4- | [E,A,C]2 !>![F,B,D]2 | !>![C,G,=E]4- | !fermata![C,G,E] z z2 |] %38
V:4
 x4 | x4 | x4 | x4 | x4 | x4 | x4 | x4 | x4 | x4 | (=A,2 F,2) | G,4 | _E4 | x4 | x2 ^F2 | x4 | %16
 ^FG [C=E][DF] | x2 =E^F- | FG [=EG][D^F] | x4 | [C_E]4 | x4 | _G=G F2 | x4 | C2 D2 | =E2 F2 | %26
 (=E2 D2) | ([B,C]2 [=A,D]2) | [B,F]3 [=A,D] | x4 | x4 | x4 | ([=B,D]2 [C=E]2) |[M:5/4] x10 | %34
[M:2/4] x4 | x4 | x4 | x4 |] %38
V:5
 x4 | x4 | x4 | x4 | x4 | x4 | x4 | x4 | x4 | x4 | C,3 D, | F,2 =E,2 | x2 DC | x4 | x4 | x4 | x4 | %17
 x4 | x4 | G,4 | x4 | x4 | _D =A,2 G, | x4 | F,4 | =A,3 G, | =A,3 G, | D,2 C,2 | D,2 C,2 | x4 | %30
 x4 | =A,G, ^F,D, | =A,4- |[M:5/4] [D,_A,]4 [C,D,G,]2 [E,G,C]2 [F,A,D]2 |[M:2/4] x4 | x4 | x4 | %37
 x4 |] %38
V:6
 x4 | x4 | x4 | x4 | x4 | x4 | x4 | x4 | x4 | x4 | F,,2 A,,2 | C,4 | x2 =A,2 | x4 | x2 D,2 | x4 | %16
 =B,,2 x2 | x2 [=A,,=A,]2 | [=B,,G,]2 C,D, | z2 [G,,D,]2 | x4 | x4 | E,2 _D,2 | x4 | =A,,2 B,,2 | %25
 C,2 B,,2 | C,2 B,,2 | F,,4 | F,,4 | x4 | x4 | =A,,2 =B,,2 | =E,2 D,2 |[M:5/4] [C,G,]2 x8 | %34
[M:2/4] x4 | x4 | x4 | x4 |] %38
V:7
 x4 | x4 | x4 | x4 | x4 | x4 | x4 | x4 | x4 | x4 | x4 | x4 | x4 | x4 | x4 | x4 | x4 | x4 | x4 | %19
 x4 | x4 | x4 | x4 | x4 | F =A2 G | x4 | x4 | x4 | x4 | x4 | x4 | x4 | x4 |[M:5/4] x10 | %34
[M:2/4] x4 | x4 | x4 | x4 |] %38

